_inc/systems/logos/gameandwatch.svg

<?xml version="1.0" encoding="utf-8"?>
<svg version="1.2" id="Layer_1" viewBox="0 0 264 29" xmlns="http://www.w3.org/2000/svg">
  <path d="M 22.509 8.676 C 20.701 6.083 17.717 4.393 14.342 4.393 C 8.818 4.393 4.345 8.917 4.345 14.498 C 4.345 20.078 8.818 24.603 14.342 24.603 C 18.349 24.603 21.807 22.215 23.403 18.772 L 14.579 18.772 L 14.579 14.177 L 28.671 14.177 C 28.676 14.285 28.679 14.391 28.679 14.498 C 28.679 15.984 28.46 17.421 28.047 18.772 C 26.244 24.692 20.791 29 14.342 29 C 6.422 29 0 22.505 0 14.498 C 0 6.49 6.422 0 14.342 0 C 20.212 0 25.255 3.569 27.475 8.676 L 22.51 8.676 Z" id="path68" style="fill-opacity: 1; fill-rule: nonzero; stroke: none; fill: rgb(255, 255, 255);"/>
  <path d="M 43.893 0.287 L 43.893 0.288 L 25.772 27.875 L 31.382 27.875 L 35.253 21.983 L 43.893 21.983 L 43.893 27.886 L 48.567 27.886 L 48.567 0.287 L 43.893 0.287 Z M 38.355 17.257 L 43.893 8.829 L 43.893 17.257 L 38.355 17.257 Z" id="path70" style="fill-opacity: 1; fill-rule: nonzero; stroke: none; fill: rgb(255, 255, 255);"/>
  <path d="M 85.166 0.287 L 85.166 0.288 L 72.669 19.305 L 72.669 0.287 L 67.995 0.287 L 67.995 0.288 L 49.873 27.875 L 55.489 27.875 L 67.995 8.829 L 67.995 27.886 L 72.669 27.886 L 72.669 27.853 L 85.166 8.829 L 85.166 27.886 L 89.838 27.886 L 89.838 0.286 L 85.166 0.286 Z" id="path72" style="fill-opacity: 1; fill-rule: nonzero; stroke: none; fill: rgb(255, 255, 255);"/>
  <path d="M 107.816 5.013 L 107.816 0.287 L 93.619 0.287 L 93.619 27.893 L 98.292 27.875 L 107.816 27.875 L 107.816 23.149 L 98.292 23.149 L 98.292 16.716 L 107.816 16.716 L 107.816 11.992 L 98.292 11.992 L 98.292 5.013 L 107.816 5.013 Z" id="path74" style="fill-opacity: 1; fill-rule: nonzero; stroke: none; fill: rgb(255, 255, 255);"/>
  <path d="M 137.574 18.806 C 139.071 15.397 141.322 10.273 141.322 10.273 L 136.737 10.273 L 134.323 15.773 L 130.729 12.418 C 132.375 11.081 133.82 9.39 133.82 6.57 C 133.82 5.057 133.227 3.627 132.161 2.543 C 130.94 1.312 129.223 0.606 127.442 0.606 C 124.357 0.606 121.163 2.837 121.163 6.57 C 121.163 9.17 122.58 10.851 123.987 12.095 C 121.382 13.96 119.114 15.946 119.114 20.041 C 119.114 22.365 119.946 24.479 121.455 26.005 C 122.977 27.545 125.102 28.394 127.442 28.394 C 131.873 28.394 134.071 26.226 135.755 22.874 L 141.19 27.953 L 144.037 24.843 L 137.574 18.806 Z M 125.794 5.491 C 126.19 5.09 126.824 4.844 127.442 4.844 C 128.101 4.844 128.771 5.11 129.196 5.538 C 129.49 5.834 129.633 6.17 129.633 6.57 C 129.633 7.76 129.068 8.408 127.527 9.56 C 126.178 8.469 125.354 7.709 125.354 6.57 C 125.354 6.146 125.498 5.791 125.794 5.491 M 132.442 20.053 C 130.996 23.31 129.969 24.154 127.442 24.154 C 126.201 24.154 125.158 23.756 124.417 23.013 C 123.688 22.274 123.305 21.247 123.305 20.041 C 123.305 17.814 124.437 16.932 127.225 14.979 C 127.239 14.97 127.255 14.958 127.265 14.949 L 132.526 19.861 L 132.442 20.053 Z" id="path86" style="fill-opacity: 1; fill-rule: nonzero; stroke: none; fill: rgb(255, 255, 255);"/>
  <path style="fill-opacity: 1; fill-rule: nonzero; stroke: none; fill: rgb(255, 255, 255);" id="path76" d="M 197.396 0.967 L 197.396 0.967 L 179.277 28.555 L 184.886 28.555 L 188.757 22.665 L 197.396 22.665 L 197.396 28.569 L 202.072 28.569 L 202.072 0.967 L 197.396 0.967 Z M 191.859 17.941 L 197.396 9.514 L 197.396 17.941 L 191.859 17.941 Z"/>
  <path style="fill-opacity: 1; fill-rule: nonzero; stroke: none; fill: rgb(255, 255, 255);" id="path78" d="M 159.161 28.569 L 159.161 28.568 L 171.652 9.545 L 171.652 28.569 L 176.326 28.569 L 176.326 28.568 L 176.326 28.568 L 194.448 0.98 L 188.836 0.98 L 176.326 20.022 L 176.326 0.968 L 171.652 0.968 L 171.652 1.004 L 159.161 20.022 L 159.161 0.968 L 154.485 0.968 L 154.485 28.569 L 159.161 28.569 Z"/>
  <path style="fill-opacity: 1; fill-rule: nonzero; stroke: none; fill: rgb(255, 255, 255);" id="path80" d="M 259.325 0.967 L 259.325 12.079 L 250.886 12.079 L 250.886 0.967 L 246.213 0.967 L 246.213 28.564 L 250.886 28.564 L 250.886 16.808 L 259.325 16.808 L 259.325 28.564 L 264 28.564 L 264 0.967 L 259.325 0.967 Z"/>
  <path style="fill-opacity: 1; fill-rule: nonzero; stroke: none; fill: rgb(255, 255, 255);" id="path82" d="M 219.155 0.967 L 203.899 0.967 L 203.899 5.691 L 209.191 5.691 L 209.191 28.564 L 213.866 28.564 L 213.866 5.691 L 219.155 5.691 L 219.155 0.967 Z"/>
  <path style="fill-opacity: 1; fill-rule: nonzero; stroke: none; fill: rgb(255, 255, 255);" id="path84" d="M 239.608 21.126 C 237.813 23.143 235.217 24.408 232.323 24.408 C 226.906 24.408 222.516 19.971 222.516 14.499 C 222.516 9.025 226.906 4.588 232.323 4.588 C 235.171 4.588 237.738 5.882 239.526 7.871 L 245.002 7.871 C 242.608 3.269 237.828 0.018 232.323 0.018 C 224.412 0.018 217.999 6.502 217.999 14.499 C 217.999 22.495 224.412 28.982 232.323 28.982 C 237.867 28.982 242.674 25.785 245.055 21.126 L 239.608 21.126 Z"/>
</svg>

<svg xmlns="http://www.w3.org/2000/svg" viewBox="0 0 264 29"><path d="M22.5 8.68a10 10 0 0 0-8.16-4.29c-5.52 0-10 4.53-10 10.1 0 5.59 4.48 10.11 10 10.11a10 10 0 0 0 9.06-5.83h-8.82v-4.6h14.1v.33q0 2.23-.63 4.27A14.4 14.4 0 0 1 14.35 29C6.41 29 0 22.5 0 14.5S6.42 0 14.34 0c5.87 0 10.92 3.57 13.14 8.68zM43.9.29 25.76 27.88h5.61l3.87-5.9h8.64v5.9h4.68V.29zm-5.55 16.97 5.54-8.43v8.43zM85.17.29 72.67 19.3V.29H68L49.87 27.88h5.62l12.5-19.05v19.06h4.68v-.04l12.5-19.02v19.06h4.67V.29zm22.65 4.72V.3h-14.2v27.6l4.67-.02h9.53v-4.72h-9.53v-6.43h9.53V12h-9.53V5.01zm29.75 13.79 3.75-8.53h-4.58l-2.42 5.5-3.6-3.35c1.66-1.34 3.1-3.03 3.1-5.85 0-1.51-.6-2.94-1.66-4.03a6.7 6.7 0 0 0-4.72-1.93c-3.08 0-6.28 2.23-6.28 5.96 0 2.6 1.42 4.28 2.83 5.53-2.6 1.86-4.88 3.85-4.88 7.94 0 2.32.84 4.44 2.34 5.97a8.3 8.3 0 0 0 6 2.38c4.42 0 6.62-2.16 8.3-5.52l5.44 5.08 2.85-3.1zM125.8 5.5c.4-.41 1.03-.66 1.65-.66.66 0 1.33.27 1.76.7q.43.44.43 1.03c0 1.19-.56 1.84-2.1 2.99-1.35-1.1-2.18-1.85-2.18-2.99q0-.63.44-1.08m6.65 14.56c-1.44 3.26-2.47 4.1-5 4.1-1.24 0-2.28-.4-3.02-1.14a4 4 0 0 1-1.11-2.97c0-2.23 1.13-3.1 3.91-5.06l.05-.03 5.26 4.91zM197.4.97l-18.12 27.59h5.6l3.88-5.9h8.64v5.9h4.67V.97zm-5.54 16.97 5.54-8.43v8.43zm-32.7 10.63 12.5-19.03v19.03h4.67L194.45.98h-5.61l-12.51 19.04V.97h-4.68V1l-12.49 19.02V.97h-4.67v27.6zM259.33.97v11.1h-8.44V.98h-4.68v27.6h4.68V16.8h8.44v11.75H264V.96zm-40.17 0H203.9v4.72h5.3v22.87h4.67V5.7h5.28z" style="fill-opacity:1;fill-rule:nonzero;stroke:none;fill:#fff"/><path d="M239.6 21.13a9.7 9.7 0 0 1-7.28 3.28 9.86 9.86 0 0 1-9.8-9.91 9.86 9.86 0 0 1 9.8-9.91 9.7 9.7 0 0 1 7.2 3.28H245A14.4 14.4 0 0 0 232.32.02 14.4 14.4 0 0 0 218 14.5c0 8 6.41 14.48 14.32 14.48 5.55 0 10.35-3.2 12.74-7.85z" style="fill-opacity:1;fill-rule:nonzero;stroke:none;fill:#fff"/></svg>
